X: 183
T: Aşkınla Çak Olsa Bu Ten
C: Hacı Nafiz Bey
O: Turkey
F: http://compmusic.upf.edu/node/140
N: ussak--ilahi--sofyan--askinla_cak--haci_nafiz_bey
N: makam= ussak
N: form= ilahi
N: usul= sofyan = 4/4
M: 4/4
L: 1/16
K: C _2/4B   
Q: 1/4=60
%%MIDI tuningsystem comma53
G4 A4 A2B2 A2G2  | d3c c3B B2{c}BA A4  | \
w:  Aş kın la   |  çâk  *  ol *  sa  *  *  *  bu   | 
A2c4BA A6z2  | fefg e2d2 d2e2 d2c2  | 
w:  ten    |  Ben  *  *  *  yi *  ne   | 
fefg e2d2 d4 d4  | c2f4e2 gffe f4  | \
w:  il *  *  *  lal *  lah  di  |  rem    | 
f4 f2e2 a2g2 f2e2  | 
w:  Yan sa  *  kül   | 
e3d d4 c2B2 A2B2  | c2d2 d2c2 cBBA B4  | \
w:  ol *  sa  bu  *  be  |  den  *  a man_ Al *  *  *  lah    | 
d3c cBBA A3c BAB2  | 
w:  Ben  *  yi *  *  *  ne   | 
d3c c3B B2{c}BA A4  | A2e4d2 eddc d4  | \
w:  il *  lal *  lah  *  *  *  di  |  rem    | 
e3d c2B2 A3c BAB2  | 
w:  Ah  *  yi ne  ben   | 
d3c c3B B2{c}BA A4  | A2c4BA A6z2  | |


